assets/svg/icon_feed_articles.svg

<svg width="24" height="24" viewBox="0 0 24 24" fill="none" xmlns="http://www.w3.org/2000/svg">
<g id="icon/feed_articles">
<path id="Vector" d="M5 14.448C5 10.32 9.27781 13.6479 11.79 11.0559C14.3022 8.46396 11.09 4 15.0956 4M8.11236 15.1989H15.8901M14.3347 11.9995H15.8902M15.1116 8.79945H15.8893M19 7.2V16.8C19 17.6487 18.6722 18.4626 18.0888 19.0627C17.5053 19.6629 16.714 20 15.8889 20H8.11111C7.28599 20 6.49472 19.6629 5.91127 19.0627C5.32782 18.4626 5 17.6487 5 16.8V14.312C5 11.5771 6.05631 8.95424 7.93646 7.02036C9.81662 5.08649 12.3666 4 15.0256 4H15.8889C16.714 4 17.5053 4.33719 18.0888 4.9373C18.6722 5.53742 19 6.3513 19 7.2Z" stroke="white" stroke-width="1.2" stroke-linecap="round" stroke-linejoin="round"/>
</g>
</svg>

<svg xmlns="http://www.w3.org/2000/svg" width="24" height="24" fill="none"><path stroke="#fff" stroke-linecap="round" stroke-linejoin="round" stroke-width="1.2" d="M5 14.448c0-4.128 4.278-.8 6.79-3.392S11.09 4 15.096 4M8.112 15.199h7.778m-1.555-3.2h1.555m-.778-3.2h.777M19 7.2v9.6c0 .849-.328 1.663-.911 2.263-.584.6-1.375.937-2.2.937H8.11a3.07 3.07 0 0 1-2.2-.937A3.25 3.25 0 0 1 5 16.8v-2.488c0-2.735 1.056-5.358 2.936-7.292S12.366 4 15.026 4h.863c.825 0 1.616.337 2.2.937.583.6.911 1.414.911 2.263"/></svg>
